newicons/evertale.svg

<?xml version="1.0" encoding="UTF-8" standalone="no"?>
<svg
   id="Layer_1"
   data-name="Layer 1"
   version="1.1"
   viewBox="0 0 48 48"
   xml:space="preserve"
   xmlns="http://www.w3.org/2000/svg"
   xmlns:svg="http://www.w3.org/2000/svg"><defs
     id="defs1"><style
       id="style1">.cls-1 { fill: none;        stroke: #fff;        stroke-linecap: round;        stroke-linejoin: round; }
</style></defs><rect
     class="cls-1"
     x="5.5"
     y="5.5"
     width="37"
     height="37"
     rx="4"
     ry="4"
     id="rect1" /><circle
     style=""
     id="path1"
     cx="18.959299"
     cy="33.410793"
     r="3.8448932"
     class="cls-1" /><path
     style=""
     d="M 22.318058,6.9826795 C 13.744389,6.2092814 10.84967,17.213631 18.296388,26.339728 c -0.132583,-3.137787 1.613087,-6.872194 1.900349,-8.838835 -0.331455,3.071495 -0.795493,6.629126 -1.016466,7.778174 2.121321,-3.226174 7.733981,-11.313708 3.137787,-18.2963875 z"
     id="path2"
     class="cls-1" /><path
     style=""
     d="m 6.331765,7.052284 c 1.8441572,2.361075 5.343569,6.560969 7.703921,8.946731"
     id="path3"
     class="cls-1" /><path
     style=""
     d="M 5.6350084,8.4616619 C 7.2036503,11.52565 11.799844,17.766058 13.258252,19.489631"
     id="path4"
     class="cls-1" /><path
     style=""
     d="m 15.443841,10.151563 c -1.541929,0.977663 -2.913529,2.910775 -3.313611,3.813654"
     id="path5"
     class="cls-1" /><path
     style=""
     d="m 26.25,5.5 c -0.46875,2.9616619 -1.625,9.25 -2.03125,9.8125"
     id="path6"
     class="cls-1" /><path
     style=""
     d="m 27.9375,5.5 c 0,2.9616619 -0.59375,9.875 -0.5625,10.84375"
     id="path7"
     class="cls-1" /><path
     style=""
     d="M 27.828535,8.6266901 C 29.359375,9.9375 34.125,15.625 33.375,24.75 32.625,33.875 32.195456,41.070991 30.49398,42.5"
     id="path8"
     class="cls-1" /><path
     style=""
     d="M 29.244019,30.211846 C 29.509184,32.885594 30.029941,40.385981 28.129592,42.5"
     id="path9"
     class="cls-1" /><path
     style=""
     d="m 31.333669,23.842757 c -0.441941,2.894718 -1.908882,6.828002 -3.396169,8.198019 1.230655,-2.96101 1.650499,-7.535107 1.230655,-11.711456"
     id="path10"
     class="cls-1" /><path
     style=""
     d="m 33.454229,22.721345 c 0.703802,-0.874268 1.747699,-0.133046 1.981701,1.615148 0.248113,1.853623 -1.415739,3.044511 -2.370755,4.236396"
     id="path11"
     class="cls-1" /><path
     style=""
     d="M 32.904796,30.507841 C 34.5,28.40625 37.0625,25.0625 36.46875,21.90625"
     id="path12"
     class="cls-1" /><path
     style=""
     d="m 22.318058,6.9826795 c 1.045512,0.095906 2.742767,0.4664533 3.560359,0.7316183"
     id="path13"
     class="cls-1" /><path
     style=""
     d="M 34.59375,13.21875 C 32.746209,10.921875 30.090508,8.9898017 27.84055,8.3982292"
     id="path14"
     class="cls-1" /><path
     style=""
     d="M 10.85762,16.376291 C 10.296875,18.75 8.96875,24.586846 12.5,30.211846 11.96875,28.399346 11.53125,27.25 11.78125,25.28125 12.610485,28.191291 15.445863,36.894642 11.479437,42.5"
     id="path15"
     class="cls-1" /><path
     style=""
     d="M 29.430583,32.620072 C 27.828535,34.34375 25.125,36.59375 23.4375,37.03125 22.879701,36.85282 22.114804,36.48128 21.621271,36.18516"
     id="path16"
     class="cls-1" /><path
     style=""
     d="M 42.5,32.734375 C 42,31.859375 38.375,23.84375 37.734375,21.4375 38.5625,22.515625 42,27.78125 42.5,28.921875"
     id="path17"
     class="cls-1" /><path
     style=""
     d="m 36.743815,14.046875 c 0.449126,-1.039529 3.806642,-2.069384 5.756185,0.5625"
     id="path18"
     class="cls-1" /><path
     style=""
     d="M 16.777428,36.576649 C 16.396038,38.360543 15.644738,40.717438 14.009553,42.5"
     id="path19"
     class="cls-1" /><path
     style=""
     d="m 5.5,32.25 c 1.484375,1.46875 6.695593,5.897005 7.410297,7.31569"
     id="path20"
     class="cls-1" /><path
     style=""
     d="m 11.107807,37.470328 c 0.595318,0.01405 1.669847,0.136237 2.210708,0.372017"
     id="path21"
     class="cls-1" /><path
     style=""
     d="m 22.303009,36.554503 c 0.05924,1.739749 -0.07334,3.949457 -1.575942,4.413496 C 19.224466,41.432038 16.572815,40.562758 15.048116,42.5"
     id="path22"
     class="cls-1" /><path
     style=""
     d="m 22.050719,39.418497 c -1.307775,1.201302 -4.732803,0.0649 -6.366035,0.522235"
     id="path23"
     class="cls-1" /><path
     style=""
     d="m 5.5,18.5 c 1.25,-0.375 3.8922308,-0.896161 5.11799,-1.057456"
     id="path24"
     class="cls-1" /><path
     style=""
     d="m 5.5,24 c 1.34375,-1 3.5030122,-1.813062 4.642131,-2.281531"
     id="path25"
     class="cls-1" /><path
     d="M 29.168155,20.32932 C 28.78125,21.8125 27.9375,23.875 27.4375,24.53125 c 0.34375,-3.25 0.21875,-6.84375 0.28125,-8.0625"
     id="path26"
     class="cls-1" /><path
     style=""
     d="M 37.71875,21.375 C 38,20.59375 37.640625,19.8125 37.328125,19.953125 37.40625,19.703125 37,19.1875 36.6875,19.21875 c 0.28125,-0.40625 0.421875,-1.546875 -0.390625,-1.8125 -0.203125,-0.125 -0.1875,-0.3125 -0.125,-0.390625 0.4375,-0.28125 0.8125,-1.625 0,-1.953125 0.375,-0.34375 1.171875,-1.515625 0.34375,-1.609375 0.578125,-0.40625 0.25,-1.734375 -0.53125,-0.59375 -0.203125,-0.703125 -1.640625,-0.84375 -0.90625,0.828125 -0.8125,-0.04687 -1.234375,0.953125 -0.25,1.484375 -0.8125,0.296875 -1.21875,1.359375 -0.0625,2.109375 -0.546875,0.390625 -0.265625,1.65625 0.28125,1.984375 -0.234375,0.5625 0.15625,2.203125 0.875,1.703125 C 35.96875,21.515625 36.875,22.25 37,21.421875 37.40625,21.765625 37.734375,21.75 37.71875,21.375 Z"
     id="path27"
     class="cls-1" /><path
     d="m 23.97534,23.953242 c -0.08839,-1.613088 1.656441,-2.855025 3.656647,-2.211959"
     id="path28"
     class="cls-1" /><path
     id="path30"
     style="stroke-width:0.999996"
     d="m 27.536623,24.202537 c -0.304875,0.270977 -0.750473,0.626898 -1.50142,0.460086 -0.438447,-0.604312 -0.834125,-1.73726 -0.73469,-2.781155"
     class="cls-1" /><path
     style=""
     d="m 14.871339,26.383922 c -0.256933,-0.994369 0.19844,-2.397156 1.734405,-2.424967"
     id="path31"
     class="cls-1" /><path
     style=""
     d="M 15.008198,32.495955 C 14.169691,29.654506 14.235225,27.191113 13.22739,24.144473 12.675701,22.476744 12.769635,20.320902 13.050613,19.239683"
     id="path32"
     class="cls-1" /><path
     style=""
     d="m 22.541222,19.418991 c 1.199625,-0.639962 2.577325,-0.841658 3.864797,-0.835341"
     id="path33"
     class="cls-1" /><path
     d="m 16.375,24.242188 c -0.164063,0.773437 -0.04687,2.085937 0.5,2.710937 0.334151,0.01563 0.903361,-0.03906 1.1875,-0.257812 0.01193,-0.34144 0.01181,-0.512267 -0.07031,-0.789063"
     id="path34"
     class="cls-1" /></svg>

<?xml version="1.0" encoding="UTF-8"?><svg id="a" xmlns="http://www.w3.org/2000/svg" viewBox="0 0 48 48"><defs><style>.aj{fill:none;stroke:#fff;stroke-linecap:round;stroke-linejoin:round;}</style></defs><rect id="b" class="aj" x="5.5" y="5.5" width="37" height="37" rx="4" ry="4"/><circle id="c" class="aj" cx="18.9593" cy="33.4108" r="3.8449"/><path id="d" class="aj" d="M22.3181,6.9827c-8.5737-.7734-11.4684,10.231-4.0217,19.357-.1326-3.1378,1.6131-6.8722,1.9003-8.8388-.3315,3.0715-.7955,6.6291-1.0165,7.7782,2.1213-3.2262,7.734-11.3137,3.1378-18.2964Z"/><path id="e" class="aj" d="M6.3318,7.0523c1.8442,2.3611,5.3436,6.561,7.7039,8.9467"/><path id="f" class="aj" d="M5.635,8.4617c1.5686,3.064,6.1648,9.3044,7.6232,11.028"/><path id="g" class="aj" d="M15.4438,10.1516c-1.5419.9777-2.9135,2.9108-3.3136,3.8137"/><path id="h" class="aj" d="M26.25,5.5c-.4688,2.9617-1.625,9.25-2.0312,9.8125"/><path id="i" class="aj" d="M27.9375,5.5c0,2.9617-.5938,9.875-.5625,10.8438"/><path id="j" class="aj" d="M27.8285,8.6267c1.5308,1.3108,6.2965,6.9983,5.5465,16.1233s-1.1795,16.321-2.881,17.75"/><path id="k" class="aj" d="M29.244,30.2118c.2652,2.6737.7859,10.1741-1.1144,12.2882"/><path id="l" class="aj" d="M31.3337,23.8428c-.4419,2.8947-1.9089,6.828-3.3962,8.198,1.2307-2.961,1.6505-7.5351,1.2307-11.7115"/><path id="m" class="aj" d="M33.4542,22.7213c.7038-.8743,1.7477-.133,1.9817,1.6151.2481,1.8536-1.4157,3.0445-2.3708,4.2364"/><path id="n" class="aj" d="M32.9048,30.5078c1.5952-2.1016,4.1577-5.4453,3.564-8.6016"/><path id="o" class="aj" d="M22.3181,6.9827c1.0455.0959,2.7428.4665,3.5604.7316"/><path id="p" class="aj" d="M34.5938,13.2188c-1.8475-2.2969-4.5032-4.2289-6.7532-4.8205"/><path id="q" class="aj" d="M10.8576,16.3763c-.5607,2.3737-1.8889,8.2106,1.6424,13.8356-.5312-1.8125-.9688-2.9618-.7188-4.9306.8292,2.91,3.6646,11.6134-.3018,17.2188"/><path id="r" class="aj" d="M29.4306,32.6201c-1.602,1.7237-4.3056,3.9737-5.9931,4.4112-.5578-.1784-1.3227-.55-1.8162-.8461"/><path id="s" class="aj" d="M42.5,32.7344c-.5-.875-4.125-8.8906-4.7656-11.2969.8281,1.0781,4.2656,6.3438,4.7656,7.4844"/><path id="t" class="aj" d="M36.7438,14.0469c.4491-1.0395,3.8066-2.0694,5.7562.5625"/><path id="u" class="aj" d="M16.7774,36.5766c-.3814,1.7839-1.1327,4.1408-2.7679,5.9234"/><path id="v" class="aj" d="M5.5,32.25c1.4844,1.4688,6.6956,5.897,7.4103,7.3157"/><path id="w" class="aj" d="M11.1078,37.4703c.5953.014,1.6698.1362,2.2107.372"/><path id="x" class="aj" d="M22.303,36.5545c.0592,1.7397-.0733,3.9495-1.5759,4.4135-1.5026.464-4.1543-.4052-5.679,1.532"/><path id="y" class="aj" d="M22.0507,39.4185c-1.3078,1.2013-4.7328.0649-6.366.5222"/><path id="z" class="aj" d="M5.5,18.5c1.25-.375,3.8922-.8962,5.118-1.0575"/><path id="aa" class="aj" d="M5.5,24c1.3438-1,3.503-1.8131,4.6421-2.2815"/><path id="ab" class="aj" d="M29.1682,20.3293c-.3869,1.4832-1.2307,3.5457-1.7307,4.2019.3438-3.25.2188-6.8438.2812-8.0625"/><path id="ac" class="aj" d="M37.7188,21.375c.2812-.7812-.0781-1.5625-.3906-1.4219.0781-.25-.3281-.7656-.6406-.7344.2812-.4062.4219-1.5469-.3906-1.8125-.2031-.125-.1875-.3125-.125-.3906.4375-.2812.8125-1.625,0-1.9531.375-.3438,1.1719-1.5156.3438-1.6094.5781-.4062.25-1.7344-.5312-.5938-.2031-.7031-1.6406-.8438-.9062.8281-.8125-.0469-1.2344.9531-.25,1.4844-.8125.2969-1.2188,1.3594-.0625,2.1094-.5469.3906-.2656,1.6562.2812,1.9844-.2344.5625.1562,2.2031.875,1.7031.0469.5469.9531,1.2812,1.0781.4531.4062.3438.7344.3281.7188-.0469Z"/><path id="ad" class="aj" d="M23.9753,23.9532c-.0884-1.6131,1.6564-2.855,3.6566-2.212"/><path id="ae" class="aj" d="M27.5366,24.2025c-.3049.271-.7505.6269-1.5014.4601-.4384-.6043-.8341-1.7373-.7347-2.7812"/><path id="af" class="aj" d="M14.8713,26.3839c-.2569-.9944.1984-2.3972,1.7344-2.425"/><path id="ag" class="aj" d="M15.0082,32.496c-.8385-2.8414-.773-5.3048-1.7808-8.3515-.5517-1.6677-.4578-3.8236-.1768-4.9048"/><path id="ah" class="aj" d="M22.5412,19.419c1.1996-.64,2.5773-.8417,3.8648-.8353"/><path id="ai" class="aj" d="M16.375,24.2422c-.1641.7734-.0469,2.0859.5,2.7109.3342.0156.9034-.0391,1.1875-.2578.0119-.3414.0118-.5123-.0703-.7891"/></svg>
